package/converter/svg/duotone/square-0.svg

<svg xmlns="http://www.w3.org/2000/svg" viewBox="0 0 448 512"><!-- Font Awesome Pro 6.0.0-alpha2 by @fontawesome - https://fontawesome.com License - https://fontawesome.com/license (Commercial License) --><defs><style>.fa-secondary{opacity:.4}</style></defs><path d="M384 32H64C28.654 32 0 60.654 0 96V416C0 451.346 28.654 480 64 480H384C419.346 480 448 451.346 448 416V96C448 60.654 419.346 32 384 32ZM320 288C320 340.938 276.938 384 224 384S128 340.938 128 288V224C128 171.062 171.062 128 224 128S320 171.062 320 224V288ZM224 176C197.531 176 176 197.531 176 224V288C176 314.469 197.531 336 224 336S272 314.469 272 288V224C272 197.531 250.469 176 224 176Z" class="fa-secondary"/><path d="M224 128C171.062 128 128 171.062 128 224V288C128 340.938 171.062 384 224 384S320 340.938 320 288V224C320 171.062 276.938 128 224 128ZM272 288C272 314.469 250.469 336 224 336S176 314.469 176 288V224C176 197.531 197.531 176 224 176S272 197.531 272 224V288Z" class="fa-primary"/></svg>

<svg xmlns="http://www.w3.org/2000/svg" viewBox="0 0 448 512"><!--! Font Awesome Pro 6.6.0 by @fontawesome - https://fontawesome.com License - https://fontawesome.com/license (Commercial License) Copyright 2024 Fonticons, Inc. --><defs><style>.fa-secondary{opacity:.4}</style></defs><path class="fa-secondary" d="M0 96L0 416c0 35.3 28.7 64 64 64l320 0c35.3 0 64-28.7 64-64l0-320c0-35.3-28.7-64-64-64L64 32C28.7 32 0 60.7 0 96zM128 224c0-53 43-96 96-96s96 43 96 96l0 64c0 53-43 96-96 96s-96-43-96-96l0-64zm48 0l0 64c0 26.5 21.5 48 48 48s48-21.5 48-48l0-64c0-26.5-21.5-48-48-48s-48 21.5-48 48z"/><path class="fa-primary" d="M128 224c0-53 43-96 96-96s96 43 96 96l0 64c0 53-43 96-96 96s-96-43-96-96l0-64zm96-48c-26.5 0-48 21.5-48 48l0 64c0 26.5 21.5 48 48 48s48-21.5 48-48l0-64c0-26.5-21.5-48-48-48z"/></svg>
